icons/arrow-topleft.svg

<svg width="24" height="24" viewBox="0 0 24 24" fill="none" xmlns="http://www.w3.org/2000/svg">
<path fill-rule="evenodd" clip-rule="evenodd" d="M8.01367 7.87238C8.30656 7.57949 8.78143 7.57949 9.07433 7.87238L16.1454 14.9434C16.4383 15.2363 16.4383 15.7112 16.1454 16.0041C15.8525 16.297 15.3776 16.297 15.0847 16.0041L8.01367 8.93304C7.72077 8.64015 7.72077 8.16527 8.01367 7.87238Z" fill="black"/>
<path fill-rule="evenodd" clip-rule="evenodd" d="M8.94068 9.03722L9.0816 14.2514C9.09279 14.6654 8.7662 15.0102 8.35214 15.0214C7.93808 15.0326 7.59334 14.706 7.58215 14.2919L7.44045 9.04918L7.44045 9.03905C7.44045 8.20057 8.12979 7.51123 8.96827 7.51123L8.97827 7.51123L14.2816 7.58201C14.6957 7.58753 15.027 7.92777 15.0215 8.34194C15.016 8.75612 14.6758 9.0874 14.2616 9.08188L8.96746 9.01129C8.96528 9.01155 8.95894 9.01303 8.95059 9.02137C8.9433 9.02866 8.94125 9.03443 8.94068 9.03722Z" fill="black"/>
</svg>

<svg xmlns="http://www.w3.org/2000/svg" fill="none" viewBox="0 0 24 24">
  <path fill="#000" fill-rule="evenodd" d="M8.014 7.872a.75.75 0 0 1 1.06 0l7.071 7.071a.75.75 0 0 1-1.06 1.061L8.014 8.933a.75.75 0 0 1 0-1.06Z" clip-rule="evenodd"/>
  <path fill="#000" fill-rule="evenodd" d="m8.94 9.037.142 5.214a.75.75 0 0 1-1.5.04L7.44 9.05v-.01c0-.838.69-1.528 1.528-1.528h.01l5.304.071a.75.75 0 0 1-.02 1.5l-5.295-.07c-.002 0-.008.001-.016.01a.033.033 0 0 0-.01.015Z" clip-rule="evenodd"/>
</svg>
